X: 20820
T: Johnny Wilmot's Fiddle
R: reel
M: 4/4
K: Edorian
A|:BEED EDB,E|DB,A,B, DEFd|AD(3DDD FEDF|1 ABdA BdAF:|2 ABdF E3 (B||
|:B)eef gfeg|fedf edBA|B/c/d Ad FDDF|ABdA BdAF|
[1 Eeef gfeg|fedf edBA|B/c/d Ad FDDF|ABdF E3 (B:|
[2 BEED EDB,E|DB,A,B, DEFd|AD D/D/D FEDF|ABdF E3||

